!!!!SEGMENT: pl-sa--l-1643--058_anonim--tria-sunt-munera-pretiosa.krn
!!!cenid: 16xx:1416
!!!COM: Anonim
!!!COM-rismid: pe30004985
!!!CDT:
!!!CNT:
!!!OTL: Tria sunt munera pretiosa
!!!PDT:
!!!AGN: Sacred
!!!SMS-siglum: PL-SA
!!!SMS-shelfmark: L 1643
!!!SMS-shelfwork: 058 W
!!!SMS-variant:
!!!SMS-altvar:
!!!NIFC-rismid: 1001064767
!!!URL-scan: http://repozytorium.nifc.pl/skany/pl-sa-nut--l1643
!!!ONB-nifc: UWAGA: 8 ksiąg. Primi chori: 1mus Cantus (92), C 2dus (91), C 3tius (89), Bassus (86-87); Secondi chori: Primus Cantus (84), C 2dus (87), Altus (85), Bassus (86-87). UWAGA: Nie dodawać pustych linii, chyba że w rękopisie pojawiają się dodatkowe oznaczenia dotyczące pełnej obsady (a 4, a 8 itp.)
!!!key:
**kern	**text	**kern	**text	**kern	**text	**kern	**text	**kern	**text	**kern	**text	**kern	**text	**kern	**text
*part8	*part8	*part7	*part7	*part6	*part6	*part5	*part5	*part4	*part4	*part3	*part3	*part2	*part2	*part1	*part1
*staff8	*staff8	*staff7	*staff7	*staff6	*staff6	*staff5	*staff5	*staff4	*staff4	*staff3	*staff3	*staff2	*staff2	*staff1	*staff1
*group2	*	*group2	*	*group2	*	*group2	*	*group1	*	*group1	*	*group1	*	*group1	*
*Iempty	*	*Iempty	*	*Iempty	*	*Iempty	*	*Iempty	*	*Iempty	*	*Iempty	*	*Iempty	*
*I"Baſsus 2di Chori.	*	*I"Altus secundi Chori.	*	*I"Cantus 2dus Secundi Chori.	*	*I"Primus Cantus 2di Chori	*	*I"Bassus Primi Chori.	*	*I"Cantus 3tius Primi Chori	*	*I"Cantus 2dus Primi Chori.	*	*I"Im(us) Cantus Primi Chori	*
*I'Coro 2 B	*	*I'Coro 2 A	*	*I'Coro 2 S 2	*	*I'Coro 2 S 1	*	*I'Coro 1 B	*	*I'Coro 1 S 3	*	*I'Coro 1 S 2	*	*I'Coro 1 S 1	*
*clefC3	*	*clefC2	*	*clefC1	*	*clefG2	*	*clefC3	*	*clefC2	*	*clefC1	*	*clefG2	*
*k[]	*	*k[]	*	*k[]	*	*k[]	*	*k[]	*	*k[]	*	*k[]	*	*k[]	*
*G:	*	*G:	*	*G:	*	*G:	*	*G:	*	*G:	*	*G:	*	*G:	*
*M2/2	*	*M2/2	*	*M2/2	*	*M2/2	*	*M2/2	*	*M2/2	*	*M2/2	*	*M2/2	*
*met(C|)	*	*met(C|)	*	*met(C|)	*	*met(C|)	*	*met(C|)	*	*met(C|)	*	*met(C|)	*	*met(C|)	*
=1-	=1-	=1-	=1-	=1-	=1-	=1-	=1-	=1-	=1-	=1-	=1-	=1-	=1-	=1-	=1-
!LO:TX:a:B:t=In Epiphania D(omi)ni:color=red	!	!LO:TX:a:B:t=In Epiphania\nD(omi)ñi.:color=red	!	!LO:TX:a:B:t=In Epiphania D(omi)ñi.:color=red	!	!LO:TX:a:B:t=In Epiphania Domini:color=red	!	!LO:TX:a:B:t=In Epiphania D(omi)ñi:color=red	!	!LO:TX:a:B:t=In Epiphania D(omi)ñi.:color=red	!	!LO:TX:a:B:t=In Epiphania\nD(omi)ñi.:color=red	!	!LO:TX:a:B:t=Pro Epiphania D(omi)ñi.:color=red	!
1G	Tri-	1g	Tri-	1b	Tri-	1dd	Tri-	0r	.	0r	.	0r	.	0r	.
=2-	=2-	=2-	=2-	=2-	=2-	=2-	=2-	=2-	=2-	=2-	=2-	=2-	=2-	=2-	=2-
2G/	-a	2g\	-a	2b\	-a	2dd\	-a	.	.	.	.	.	.	.	.
2G/	sunt	2g\	sunt	2b\	sunt	2dd\	sunt	.	.	.	.	.	.	.	.
=3-	=3-	=3-	=3-	=3-	=3-	=3-	=3-	=3-	=3-	=3-	=3-	=3-	=3-	=3-	=3-
1.c	mu-	1.g	mu-	1.cc	mu-	1.ee	mu-	1c	Tri-	1g	Tri-	1cc	Tri-	1ee	Tri-
=4-	=4-	=4-	=4-	=4-	=4-	=4-	=4-	=4-	=4-	=4-	=4-	=4-	=4-	=4-	=4-
.	.	.	.	.	.	.	.	2c/	-a	2g\	-a	2cc\	-a	2ee\	-a
2c/	-ne-	2g\	-ne-	2cc\	-ne-	2ee\	-ne-	2c/	ſunt	2g\	ſunt	2cc\	sunt	2ee\	sunt
=5-	=5-	=5-	=5-	=5-	=5-	=5-	=5-	=5-	=5-	=5-	=5-	=5-	=5-	=5-	=5-
1F	-ra	1f	-ra	0cc,<	-ra,	0cc	-ra	2.f\	mu-	2.a\	mu-	2.cc\	mu-	2.ff\	mu-
.	.	.	.	.	.	.	.	4f\	-ne-	4a\	-ne-	4cc\	-ne-	4ff\	-ne-
=6-	=6-	=6-	=6-	=6-	=6-	=6-	=6-	=6-	=6-	=6-	=6-	=6-	=6-	=6-	=6-
4c/	pre-	1.g	pre-	.	.	.	.	1c	-ra	1g	-ra	1cc	-ra	1ee	-ra
4d/	.	.	.	.	.	.	.	.	.	.	.	.	.	.	.
4e\	.	.	.	.	.	.	.	.	.	.	.	.	.	.	.
4f\	.	.	.	.	.	.	.	.	.	.	.	.	.	.	.
=7-	=7-	=7-	=7-	=7-	=7-	=7-	=7-	=7-	=7-	=7-	=7-	=7-	=7-	=7-	=7-
!	!	!	!	!	!	!	!	!	!	!	!	!LO:SIC:v:t=custos dd	!	!	!
1g	.	.	.	2b\	pre-	1.dd	pre-	4G/	pre-	2g\	pre-	1g	pre-	2dd\	pre-
.	.	.	.	.	.	.	.	4A/	.	.	.	.	.	.	.
.	.	2d/	-ti-	2b\	-ti-	.	.	4B/	ti-	2g\	ti-	.	.	1gg\	-ti-
.	.	.	.	.	.	.	.	4c/	.	.	.	.	.	.	.
!	!	!	!	!	!	!	!	!	!	!	!	!LO:LB:g=original	!	!	!
=8-	=8-	=8-	=8-	=8-	=8-	=8-	=8-	=8-	=8-	=8-	=8-	=8-	=8-	=8-	=8-
1.d	-ti-	(1.d	-o-	0a	-o-	.	.	0d	-o-	0a	-o-	1.dd	ti-	.	.
.	.	.	.	.	.	2dd\	-ti-	.	.	.	.	.	.	4ff\	.
.	.	.	.	.	.	.	.	.	.	.	.	.	.	4ee\	.
=9-	=9-	=9-	=9-	=9-	=9-	=9-	=9-	=9-	=9-	=9-	=9-	=9-	=9-	=9-	=9-
!	!	!	!	!	!	!	!	!	!	!	!	!	!	!LO:TX:b:t=P:problem:# below	!
.	.	.	.	.	.	1dd	-o-	.	.	.	.	.	.	2.ff#X\	.
2d\	-o-	2g\)	.	.	.	.	.	.	.	.	.	2a\	-o-	.	.
.	.	.	.	.	.	.	.	.	.	.	.	.	.	4ff#\	-o-
=10-	=10-	=10-	=10-	=10-	=10-	=10-	=10-	=10-	=10-	=10-	=10-	=10-	=10-	=10-	=10-
!	!	!LO:SIC:v:t=custos g	!	!	!	!	!	!	!	!	!	!	!	!	!
1g	-sa	1g	-sa	1b,<	-sa,	1dd	-sa	1G	-sa	1g	-sa.	1dd	-sa	1gg	-sa.
!	!	!LO:LB:g=original	!	!	!	!	!	!	!	!	!	!	!	!	!
=11-	=11-	=11-	=11-	=11-	=11-	=11-	=11-	=11-	=11-	=11-	=11-	=11-	=11-	=11-	=11-
1G	quae	1g	quae	1b	quae	1dd	quae	00r	.	00r	.	00r	.	00r	.
=12-	=12-	=12-	=12-	=12-	=12-	=12-	=12-	=12-	=12-	=12-	=12-	=12-	=12-	=12-	=12-
2.c/	ob-	2.g\	ob-	2.cc\	ob-	2.ee\	ob-	.	.	.	.	.	.	.	.
4c/	-tu-	4g\	-tu-	4cc\	-tu-	4ee\	-tu-	.	.	.	.	.	.	.	.
=13-	=13-	=13-	=13-	=13-	=13-	=13-	=13-	=13-	=13-	=13-	=13-	=13-	=13-	=13-	=13-
!LO:SIC:v:t=custos A	!	!	!	!	!	!	!	!	!	!	!	!	!	!	!
2A/	-le-	2a\	-le-	2cc\	-le-	2cc\	-le-	.	.	.	.	.	.	.	.
!LO:LB:g=original	!	!	!	!	!	!	!	!	!	!	!	!	!	!	!
2A/	-runt	2e/	-runt	2a\	-runt	2cc\	-runt	.	.	.	.	.	.	.	.
=14-	=14-	=14-	=14-	=14-	=14-	=14-	=14-	=14-	=14-	=14-	=14-	=14-	=14-	=14-	=14-
1d	Ma-	1f	Ma-	1a	Ma-	1dd	Ma-	.	.	.	.	.	.	.	.
=15-	=15-	=15-	=15-	=15-	=15-	=15-	=15-	=15-	=15-	=15-	=15-	=15-	=15-	=15-	=15-
1G	-gi	1g	-gi	1b	-gi	1b	-gi	1g	quae	1g	quae	1b	quae	1dd	quae
=16-	=16-	=16-	=16-	=16-	=16-	=16-	=16-	=16-	=16-	=16-	=16-	=16-	=16-	=16-	=16-
2.c/	Do-	2.e/	Do-	2.g/	Do-	2.cc\	D(o-	2.c/	ob-	2.g\	ob-	2.cc\	ob-	2.ee\	ob-
!	!	!	!	!LO:SIC:v:t=custos a	!	!	!	!	!	!	!	!	!	!	!
4c/	-mi-	4e/	-mi-	4g/	-mi-	4cc\	-mi)-	4c/	-tu-	4g\	-tu-	4cc\	-tu-	4ee\	-tu-
!	!	!	!	!LO:LB:g=original	!	!	!	!	!	!	!	!	!	!LO:LB:g=original	!
=17-	=17-	=17-	=17-	=17-	=17-	=17-	=17-	=17-	=17-	=17-	=17-	=17-	=17-	=17-	=17-
!	!	!	!	!	!	!LO:SIC:v:t=custos cc	!	!	!	!	!	!	!	!	!
1F	-no.	1f	-no	1a	-no	1a	-no.	2f\	-le-	2f\	-le-	2a\	-le-	2cc\	-le-
.	.	.	.	.	.	.	.	2f\	-runt	2a\	-runt	2a\	-runt	2cc\	-runt
!	!	!	!	!	!	!LO:LB:g=original	!	!LO:LB:g=original	!	!	!	!	!	!	!
=18-	=18-	=18-	=18-	=18-	=18-	=18-	=18-	=18-	=18-	=18-	=18-	=18-	=18-	=18-	=18-
!	!	!	!	!	!	!	!	!	!	!LO:SIC:v:t=custos g	!	!	!	!	!
0r	.	0r	.	0r	.	0r	.	1d	Ma-	1a	Ma-	1a	Ma-	1dd	Ma-
!	!	!	!	!	!	!	!	!	!	!LO:LB:g=original	!	!	!	!	!
=19-	=19-	=19-	=19-	=19-	=19-	=19-	=19-	=19-	=19-	=19-	=19-	=19-	=19-	=19-	=19-
.	.	.	.	.	.	.	.	1g	-gi	1g	-gi	1dd	-gi	1b	-gi
=20-	=20-	=20-	=20-	=20-	=20-	=20-	=20-	=20-	=20-	=20-	=20-	=20-	=20-	=20-	=20-
1r	.	1r	.	1r	.	1r	.	2.c/	Do-	2.g\	Do-	2.ee\	Do-	2.cc\	Do-
.	.	.	.	.	.	.	.	4c/	-mi-	4g\	-mi-	4ee\	-mi-	4cc\	-mi-
=21-	=21-	=21-	=21-	=21-	=21-	=21-	=21-	=21-	=21-	=21-	=21-	=21-	=21-	=21-	=21-
2r	.	2r	.	2r	.	2r	.	2G/	-no	2g\	-no	2dd\	-no	2dd\	-no
2c/	in	2g\	in	2g/	in	2cc\	in	4c/	in	2g\	in	2cc\	in	2ee\	in
.	.	.	.	.	.	.	.	4d\	.	.	.	.	.	.	.
=22-	=22-	=22-	=22-	=22-	=22-	=22-	=22-	=22-	=22-	=22-	=22-	=22-	=22-	=22-	=22-
4G/	di-	2g\	di-	2b\	di-	2dd\	di-	4e\	.	2g\	di-	2cc\	di-	2dd\	di-
4A/	.	.	.	.	.	.	.	4f\	.	.	.	.	.	.	.
4B/	.	2d/	-e	2dd\	-e	2dd\	-e	2g\	di-	2g\	-e	2b\	-e	1gg\	-e
4c/	.	.	.	.	.	.	.	.	.	.	.	.	.	.	.
=23-	=23-	=23-	=23-	=23-	=23-	=23-	=23-	=23-	=23-	=23-	=23-	=23-	=23-	=23-	=23-
1.d	e	0d	is-	1.dd	is-	0dd	is-	1.d	-e	0a	i-	0a	i-	.	.
.	.	.	.	.	.	.	.	.	.	.	.	.	.	4ffny\	.
.	.	.	.	.	.	.	.	.	.	.	.	.	.	4ee\	.
=24-	=24-	=24-	=24-	=24-	=24-	=24-	=24-	=24-	=24-	=24-	=24-	=24-	=24-	=24-	=24-
!	!	!	!	!	!	!	!	!	!	!	!	!	!	!LO:TX:b:t=P:problem:# below	!
.	.	.	.	.	.	.	.	.	.	.	.	.	.	1ff#X	i-
2d\	is-	.	.	2a\	.	.	.	2d\	i-	.	.	.	.	.	.
=25-	=25-	=25-	=25-	=25-	=25-	=25-	=25-	=25-	=25-	=25-	=25-	=25-	=25-	=25-	=25-
1g	-ta	1d	-ta	1dd	-ta	1dd	-ta	1G	-sta	1g	-sta	1b	-sta	1gg	-sta.
=26-	=26-	=26-	=26-	=26-	=26-	=26-	=26-	=26-	=26-	=26-	=26-	=26-	=26-	=26-	=26-
!	!	!LO:TX:b:t=P:problem:# below	!	!	!	!	!	!	!	!	!	!	!	!	!
2.d\	au-	2.f#X\	au-	2.a\	au-	2.dd\	au-	0r	.	0r	.	0r	.	0r	.
4d\	-rum	4f#\	-rum	4a\	-rum	4dd\	-rum	.	.	.	.	.	.	.	.
=27-	=27-	=27-	=27-	=27-	=27-	=27-	=27-	=27-	=27-	=27-	=27-	=27-	=27-	=27-	=27-
2g\	thus	2g\	thus	2b\	thus	2b/	thus	.	.	.	.	.	.	.	.
!	!	!LO:SIC:v:t=custos e	!	!	!	!	!	!	!	!	!	!	!	!	!
2g\	et	2g\	et	2g/	et	2b/	et	.	.	.	.	.	.	.	.
!	!	!LO:LB:g=original	!	!	!	!	!	!	!	!	!	!	!	!	!
=28-	=28-	=28-	=28-	=28-	=28-	=28-	=28-	=28-	=28-	=28-	=28-	=28-	=28-	=28-	=28-
!	!	!	!	!	!	!	!	!	!	!	!	!LO:SIC:v:t=custos cc	!	!	!
1c	myr-	1e	mẏr-	1g	mẏr-	1cc	myr-	1r	.	1r	.	1r	.	1r	.
!	!	!	!	!	!	!	!	!	!	!	!	!LO:LB:g=original	!	!	!
=29-	=29-	=29-	=29-	=29-	=29-	=29-	=29-	=29-	=29-	=29-	=29-	=29-	=29-	=29-	=29-
1F	-rham	1fny	-rham	1a	-rham.	1a	-rham,	2.f\	au-	2.a\	au-	2.cc\	au-	2.ffny\	au-
.	.	.	.	.	.	.	.	4f\	-rum	4a\	-rum	4cc\	-rum	4ff\	-rum
=30-	=30-	=30-	=30-	=30-	=30-	=30-	=30-	=30-	=30-	=30-	=30-	=30-	=30-	=30-	=30-
0r	.	0r	.	0r	.	0r	.	2g\	thus	2g\	thus	2b\	thus	2dd\	thus
.	.	.	.	.	.	.	.	2g\	et	2g\	e(t)	2b\	et	2dd\	et
=31-	=31-	=31-	=31-	=31-	=31-	=31-	=31-	=31-	=31-	=31-	=31-	=31-	=31-	=31-	=31-
!	!	!	!	!	!	!	!	!	!	!	!	!	!	!LO:SIC:v:t=custos cc	!
.	.	.	.	.	.	.	.	1c	mÿr-	1g	myr-	1cc	mÿr-	1ee	mȳr-
!	!	!	!	!	!	!	!	!	!	!	!	!	!	!LO:LB:g=original	!
=32-	=32-	=32-	=32-	=32-	=32-	=32-	=32-	=32-	=32-	=32-	=32-	=32-	=32-	=32-	=32-
2r	.	2r	.	2r	.	2r	.	2f\	-rham	2a\	-rham	2cc\	-rham	2cc\	-rham
2c/	et	2g\	et	2g/	et	2ee\	et	2c\	et	1g\	et	1cc\	et	2cc\	et
=33-	=33-	=33-	=33-	=33-	=33-	=33-	=33-	=33-	=33-	=33-	=33-	=33-	=33-	=33-	=33-
1G	mẏr-	2d/	myr-	1b	mÿr-	1dd	mẏr-	4g\	myr-	.	.	.	.	1dd	mẏr-
.	.	.	.	.	.	.	.	4f\	.	.	.	.	.	.	.
.	.	2g\	.	.	.	.	.	4e\	.	2g\	mÿr-	2b\	mÿr-	.	.
.	.	.	.	.	.	.	.	4d\	.	.	.	.	.	.	.
=34-	=34-	=34-	=34-	=34-	=34-	=34-	=34-	=34-	=34-	=34-	=34-	=34-	=34-	=34-	=34-
!	!	!	!	!	!	!	!	!LO:TX:t=P:problem:kreska pseudotaktowa kropkowana	!	!LO:TX:t=P:problem:kreska pseudotaktowa kropkowana	!	!LO:TX:t=P:problem:kreska pseudotaktowa kropkowana	!	!LO:TX:t=P:problem:kreska pseudotaktowa kropkowana	!
!LO:TX:t=P:problem:kreska pseudotaktowa kropkowana	!	!LO:TX:t=P:problem:kreska pseudotaktowa kropkowana	!	!LO:TX:t=P:problem:kreska pseudotaktowa kropkowana	!	!LO:TX:t=P:problem:kreska pseudotaktowa kropkowana	!	!LO:SIC:v:t=custos G	!	!	!	!	!	!	!
0c	-rham	0e	-rham.	0g	-rham.	0cc	-rham,	0c	-rham	0g	-rha(m).	0cc	-rham	0ee	-rham.
=35-	=35-	=35-	=35-	=35-	=35-	=35-	=35-	=35-	=35-	=35-	=35-	=35-	=35-	=35-	=35-
!	!	!	!	!	!	!	!	!LO:LB:g=original	!	!	!	!	!	!	!
=36-	=36-	=36-	=36-	=36-	=36-	=36-	=36-	=36-	=36-	=36-	=36-	=36-	=36-	=36-	=36-
0r	.	0r	.	0r	.	0r	.	0r	.	0r	.	0r	.	1dd	In
=37-	=37-	=37-	=37-	=37-	=37-	=37-	=37-	=37-	=37-	=37-	=37-	=37-	=37-	=37-	=37-
.	.	.	.	.	.	.	.	.	.	.	.	.	.	1ee	au-
=38-	=38-	=38-	=38-	=38-	=38-	=38-	=38-	=38-	=38-	=38-	=38-	=38-	=38-	=38-	=38-
!LO:SIC:v:t=custos g	!	!	!	!	!	!	!	!	!	!LO:SIC:v:t=custos g	!	!	!	!	!
1r	.	1r	.	1r	.	1r	.	1r	.	1r	.	1r	.	1dd	-ro
!LO:LB:g=original	!	!	!	!	!	!	!	!	!	!	!	!	!	!	!
=39-	=39-	=39-	=39-	=39-	=39-	=39-	=39-	=39-	=39-	=39-	=39-	=39-	=39-	=39-	=39-
1g	Re-	1d	Re-	1b	Re-	1dd	Re-	1G	Re-	1g	Re-	1dd	Re-	00r	.
=40-	=40-	=40-	=40-	=40-	=40-	=40-	=40-	=40-	=40-	=40-	=40-	=40-	=40-	=40-	=40-
2c/	-gis	2g\	-gis	2g/	-gis	2ee\	-gis	2c/	-gis	2g\	-gis	2cc\	-gis	.	.
2g\	po-	2d/	po-	2g/	po-	2dd\	po-	2G/	po-	2g\	po-	2b\	po-	.	.
=41-	=41-	=41-	=41-	=41-	=41-	=41-	=41-	=41-	=41-	=41-	=41-	=41-	=41-	=41-	=41-
!	!	!	!	!	!	!	!	!	!	!LO:TX:b:t=P:problem:# below	!	!	!	!	!
2.d\	-ten-	2.d/	-ten-	2.a\	-ten-	2.dd\	-ten-	2.d\	-ten-	2.f#X\	-ten-	2.a\	-ten-	.	.
4d\	-ti-	4d/	-ti-	4a\	-ti-	4dd\	-ti-	4d\	-ti-	4f#\	-ti-	4a\	-ti-	.	.
=42-	=42-	=42-	=42-	=42-	=42-	=42-	=42-	=42-	=42-	=42-	=42-	=42-	=42-	=42-	=42-
!	!	!	!	!LO:SIC:v:t=custos cc	!	!	!	!	!	!	!	!	!	!	!
1g	-am	1d	-am	1g	-am	1dd	-am	1G	-am	1g	-am	1b	-am	.	.
!	!	!	!	!LO:LB:g=original	!	!	!	!	!	!	!	!	!	!	!
=43-	=43-	=43-	=43-	=43-	=43-	=43-	=43-	=43-	=43-	=43-	=43-	=43-	=43-	=43-	=43-
0r	.	0r	.	0r	.	0r	.	0r	.	0r	.	0r	.	1ee	In
=44-	=44-	=44-	=44-	=44-	=44-	=44-	=44-	=44-	=44-	=44-	=44-	=44-	=44-	=44-	=44-
.	.	.	.	.	.	.	.	.	.	.	.	.	.	1ff	rhy-
=45-	=45-	=45-	=45-	=45-	=45-	=45-	=45-	=45-	=45-	=45-	=45-	=45-	=45-	=45-	=45-
1r	.	1r	.	1r	.	1r	.	1r	.	1r	.	1r	.	1ee	-re
=46-	=46-	=46-	=46-	=46-	=46-	=46-	=46-	=46-	=46-	=46-	=46-	=46-	=46-	=46-	=46-
1.f	De-	1.f	De-	1.cc	De-	1.ff	De-	1.F	De-	1.a	De-	1.cc	De-	00r	.
=47-	=47-	=47-	=47-	=47-	=47-	=47-	=47-	=47-	=47-	=47-	=47-	=47-	=47-	=47-	=47-
!	!	!	!	!	!	!LO:SIC:v:t=custos dd	!	!	!	!	!	!LO:SIC:v:t=custos b	!	!	!
2c/	-um	1g\	-um	2cc\	-um	2ee\	-um	2c/	-um	2g\	-um	1cc\	-um	.	.
!	!	!	!	!	!	!LO:LB:g=original	!	!	!	!	!	!LO:LB:g=original	!	!	!
=48-	=48-	=48-	=48-	=48-	=48-	=48-	=48-	=48-	=48-	=48-	=48-	=48-	=48-	=48-	=48-
1g	ve-	.	.	1dd	ve-	1dd	ve-	1G	Ve-	1g	Ve-	.	.	.	.
!	!	!LO:SIC:v:t=custos g	!	!	!	!	!	!	!	!	!	!	!	!	!
.	.	2d/	ve-	.	.	.	.	.	.	.	.	2b\	ve-	.	.
!	!	!LO:LB:g=original	!	!	!	!	!	!	!	!	!	!	!	!	!
=49-	=49-	=49-	=49-	=49-	=49-	=49-	=49-	=49-	=49-	=49-	=49-	=49-	=49-	=49-	=49-
2c/	-rum	2g\	-rum	2cc\	-rum	2ee\	-rum	2c/	-rum	2g\	-rum	2cc\	-rum	.	.
2g\	con-	2d/	con-	2g/	con-	2dd\	con-	2G/	con-	2g\	con-	2b\	con-	.	.
=50-	=50-	=50-	=50-	=50-	=50-	=50-	=50-	=50-	=50-	=50-	=50-	=50-	=50-	=50-	=50-
2.d\	-ſi-	2.d/	-si-	2.dd\	-si-	2.dd\	-si-	2.d\	-si-	2.a\	-si-	2.a\	-si-	0r	.
4d\	-de-	4d/	-de-	4dd\	-de-	4dd\	-de-	4d\	-de-	4a\	-de-	4a\	-de-	.	.
=51-	=51-	=51-	=51-	=51-	=51-	=51-	=51-	=51-	=51-	=51-	=51-	=51-	=51-	=51-	=51-
1g	-ra	1d	-ra	1b	-ra,	1dd	-ra,	1G	-ra	1g	-ra	1b	-ra	.	.
=52-	=52-	=52-	=52-	=52-	=52-	=52-	=52-	=52-	=52-	=52-	=52-	=52-	=52-	=52-	=52-
00r	.	00r	.	00r	.	00r	.	00r	.	00r	.	00r	.	1.ee	et
=53-	=53-	=53-	=53-	=53-	=53-	=53-	=53-	=53-	=53-	=53-	=53-	=53-	=53-	=53-	=53-
.	.	.	.	.	.	.	.	.	.	.	.	.	.	2dd\	in
=54-	=54-	=54-	=54-	=54-	=54-	=54-	=54-	=54-	=54-	=54-	=54-	=54-	=54-	=54-	=54-
.	.	.	.	.	.	.	.	.	.	.	.	.	.	1cc	mÿr-
=55-	=55-	=55-	=55-	=55-	=55-	=55-	=55-	=55-	=55-	=55-	=55-	=55-	=55-	=55-	=55-
.	.	.	.	.	.	.	.	.	.	.	.	.	.	1b	-ha
=56-	=56-	=56-	=56-	=56-	=56-	=56-	=56-	=56-	=56-	=56-	=56-	=56-	=56-	=56-	=56-
1g	Do-	1g	Do-	1b	Do-	1dd	Do-	1G	Do-	1g	Do-	1b	Do-	0r	.
=57-	=57-	=57-	=57-	=57-	=57-	=57-	=57-	=57-	=57-	=57-	=57-	=57-	=57-	=57-	=57-
2.c/	-mi-	2.g\	-mi-	2.cc\	-mi-	2.ee\	-mi-	2.c/	-mi-	2.g\	-mi-	2.cc\	-mi-	.	.
4c/	-ni-	4g\	-ni-	4cc\	-ni-	4ee\	-ni-	4c/	-ni-	4g\	-ni-	4cc\	-ni-	.	.
=58-	=58-	=58-	=58-	=58-	=58-	=58-	=58-	=58-	=58-	=58-	=58-	=58-	=58-	=58-	=58-
!	!	!	!	!	!	!	!	!LO:SIC:v:t=custos d	!	!	!	!	!	!	!
2g\	-cam	2g\	-cam	2b\	-cam	2dd\	-cam,	2G/	-cam	2g\	-cam	2b\	-cam	2r	.
!	!	!	!	!	!	!	!	!LO:PB:g=original	!	!LO:SIC:v:t=custos a	!	!	!	!	!
2r	.	2r	.	2r	.	2r	.	1d\	Se-	1a\	Se-	1dd\	se-	1ff\	Se-
=59-	=59-	=59-	=59-	=59-	=59-	=59-	=59-	=59-	=59-	=59-	=59-	=59-	=59-	=59-	=59-
0r	.	0r	.	0r	.	0r	.	.	.	.	.	.	.	.	.
!	!	!	!	!	!	!	!	!	!	!LO:LB:g=original	!	!	!	!	!
.	.	.	.	.	.	.	.	2d\	-pul-	2a\	-pul-	2.dd\	-pul-	2ff\	-pul-
=60-	=60-	=60-	=60-	=60-	=60-	=60-	=60-	=60-	=60-	=60-	=60-	=60-	=60-	=60-	=60-
!	!	!	!	!	!	!	!	!	!	!	!	!	!	!LO:SIC:v:t=custos dd	!
.	.	.	.	.	.	.	.	1A	-tu-	1a	-tu-	.	.	1ee	-tu-
.	.	.	.	.	.	.	.	.	.	.	.	8cc\L	.	.	.
.	.	.	.	.	.	.	.	.	.	.	.	8b\J	.	.	.
!	!	!	!	!	!	!	!	!	!	!	!	!LO:TX:b:t=P:problem:# below	!	!	!
.	.	.	.	.	.	.	.	.	.	.	.	2cc#X\	-tu-	.	.
!	!	!	!	!	!	!	!	!	!	!	!	!	!	!LO:LB:g=original	!
=61-	=61-	=61-	=61-	=61-	=61-	=61-	=61-	=61-	=61-	=61-	=61-	=61-	=61-	=61-	=61-
!LO:SIC:v:t=custos d	!	!	!	!	!	!	!	!	!	!LO:TX:b:t=P:problem:# below	!	!	!	!	!
2r	.	2r	.	2r	.	2r	.	1d	-ram	1a	-ram	1dd	-ram	1dd	-ram
*	*	*	*	*	*ij	*	*ij	*	*	*	*	*	*	*	*
!LO:PB:g=original	!	!	!	!	!	!	!	!	!	!	!	!	!	!	!
2d\	Do-	2a\	Do-	2dd\	Do-	2ff\	Do-	.	.	.	.	.	.	.	.
=62-	=62-	=62-	=62-	=62-	=62-	=62-	=62-	=62-	=62-	=62-	=62-	=62-	=62-	=62-	=62-
!	!	!	!	!LO:TX:b:t=P:problem:# below	!	!	!	!	!	!LO:N:vis=0	!	!	!	!	!
2.A/	-mi-	2.a\	-mi-	2.cc#X\	-mi-	2.ee\	-mi-	1r	.	1r	.	1r	.	1r	.
4A/	-ni-	4a\	-ni-	4cc#\	-ni-	4ee\	-ni-	.	.	.	.	.	.	.	.
=63-	=63-	=63-	=63-	=63-	=63-	=63-	=63-	=63-	=63-	=63-	=63-	=63-	=63-	=63-	=63-
2d\	-cam,	2a\	-cam	2dd\	-cam	2dd\	-cam,	2r	.	2r	.	2r	.	2r	.
*	*	*	*	*	*Xij	*	*Xij	*	*	*	*	*	*	*	*
2r	.	2r	.	2r	.	2r	.	1G/	Se-	1g\	Se-	1ddny\	Se-	1gg\	Se-
=64-	=64-	=64-	=64-	=64-	=64-	=64-	=64-	=64-	=64-	=64-	=64-	=64-	=64-	=64-	=64-
0r	.	0r	.	0r	.	0r	.	.	.	.	.	.	.	.	.
.	.	.	.	.	.	.	.	2d\	-pul-	2a\	-pul-	2.dd\	-pul-	2ff\	-pul-
=65-	=65-	=65-	=65-	=65-	=65-	=65-	=65-	=65-	=65-	=65-	=65-	=65-	=65-	=65-	=65-
.	.	.	.	.	.	.	.	1A	-tu-	1a	-tu-	.	.	1ee	-tu-
.	.	.	.	.	.	.	.	.	.	.	.	8ccny\L	.	.	.
!	!	!	!	!	!	!	!	!	!	!	!	!LO:SIC:v:t=custos cc	!	!	!
.	.	.	.	.	.	.	.	.	.	.	.	8b\J	.	.	.
!	!	!	!	!	!	!	!	!	!	!	!	!LO:LB:g=original	!	!	!
!	!	!	!	!	!	!	!	!	!	!	!	!LO:TX:b:t=P:problem:# below	!	!	!
.	.	.	.	.	.	.	.	.	.	.	.	2cc#X\	-tu-	.	.
=66-	=66-	=66-	=66-	=66-	=66-	=66-	=66-	=66-	=66-	=66-	=66-	=66-	=66-	=66-	=66-
2r	.	2r	.	2r	.	2r	.	2d\	-ram	2a\	-ram	2dd\	-ram	2dd\	-ram
2g\	Do-	2d/	Do-	2b\	Do-	2dd\	Do-	2G/	Se-	2g\	Do-	2b\	Do-	2dd\	Do-
=67-	=67-	=67-	=67-	=67-	=67-	=67-	=67-	=67-	=67-	=67-	=67-	=67-	=67-	=67-	=67-
2.c/	-mi-	2.g\	-mi-	2.g/	-mi-	2.cc\	-mi-	2.c/	-pul-	2.g\	-mi-	2.ccny\	-mi-	2.ee\	-mi-
4c/	-ni-	4e/	-ni-	4g/	-ni-	4cc\	-ni-	4c/	-tu-	4g\	-ni-	4cc\	-ni-	4ee\	-ni-
=68-	=68-	=68-	=68-	=68-	=68-	=68-	=68-	=68-	=68-	=68-	=68-	=68-	=68-	=68-	=68-
1g,<	-cam	1g	-cam	1b	-cam	1dd	-cam	1G	-ram	1g	-cam	1b	-cam	1dd	-cam
=69-	=69-	=69-	=69-	=69-	=69-	=69-	=69-	=69-	=69-	=69-	=69-	=69-	=69-	=69-	=69-
!	!	!LO:SIC:v:t=custos d	!	!	!	!	!	!	!	!	!	!	!	!	!
2c/	se-	2g\	se-	2g/	paſ-	2cc\	se-	2c/	Se-	2g\	ſe-	2cc\	Se-	4ee\	Se-
.	.	.	.	.	.	.	.	.	.	.	.	.	.	4ff\	.
!	!	!LO:LB:g=original	!	!	!	!	!	!	!	!	!	!	!	!	!
2g\	-pul-	2d/	-pul-	2b\	-si-	2dd\	-pul-	2G/	-pul-	2g\	-pul-	2b\	-pul-	1gg\	-pul-
=70-	=70-	=70-	=70-	=70-	=70-	=70-	=70-	=70-	=70-	=70-	=70-	=70-	=70-	=70-	=70-
*	*	*	*	*	*	*	*	*	*	*	*	*lig	*	*	*
!LO:TX:t=P:problem:kreska pseudotaktowa kropkowana	!	!LO:TX:t=P:problem:kreska pseudotaktowa kropkowana	!	!	!	!LO:TX:t=P:problem:kreska pseudotaktowa kropkowana	!	!LO:TX:t=P:problem:kreska pseudotaktowa kropkowana	!	!LO:TX:t=P:problem:kreska pseudotaktowa kropkowana	!	!	!	!	!
0d	-tu-	0d	-tu-	1.dd	-o-	0dd	-tu-	0d	-tu-	0a	-tu-	1a	-tu-	.	.
.	.	.	.	.	.	.	.	.	.	.	.	.	.	4ff\	.
.	.	.	.	.	.	.	.	.	.	.	.	.	.	4ee\	.
=71-	=71-	=71-	=71-	=71-	=71-	=71-	=71-	=71-	=71-	=71-	=71-	=71-	=71-	=71-	=71-
!	!	!	!	!	!	!	!	!	!	!	!	!	!	!LO:TX:b:t=P:problem:# below	!
.	.	.	.	.	.	.	.	.	.	.	.	1dd	.	1ff#X	-tu-
!	!	!	!	!LO:TX:t=P:problem:kreska pseudotaktowa kropkowana	!	!	!	!	!	!	!	!	!	!	!
.	.	.	.	2a\	.	.	.	.	.	.	.	.	.	.	.
*	*	*	*	*	*	*	*	*	*	*	*	*Xlig	*	*	*
=72-	=72-	=72-	=72-	=72-	=72-	=72-	=72-	=72-	=72-	=72-	=72-	=72-	=72-	=72-	=72-
1gl;;	-ram.	1dl;;	-ram	1ddl;;	-nem	1ddl;;	-ram.	1Gl;;	-ram.	1gl;;	-ram.	1bl;;	-ram.	1ggl;;	-ram.
==	==	==	==	==	==	==	==	==	==	==	==	==	==	==	==
*-	*-	*-	*-	*-	*-	*-	*-	*-	*-	*-	*-	*-	*-	*-	*-
!!!system-decoration: [(g1)][(g2)]
!!!RDF**kern: < = below
!!!RDF**kern: l = terminal long
!!!AIN: 8 empty
!!!ENC: Filip Voros
!!!END: 2021-10-16
!!!ENC: Andrzej Kubiczek
!!!END: 2021-10-22
